X:1
T:Title
%%score ( 1 2 ) { 3 | 4 }
L:1/8
Q:1/4=130
M:6/4
K:F
V:1 treble nm="Grand Piano, Soprano"
V:2 treble 
V:3 treble nm="Choir Pad, Red Oak, W. Howard Doane"
V:4 bass 
V:1
 [FA]4 [FA]2 [Fc]4 [FA]2 | .B6 z6 | z6 .c6 | [CF]4 [CE]2 [CF]6 | [FA]4 [FA]2 [Fc]4 [FA]2 | .B6 z6 | %6
w: By~William~Howard~Doane,~1875 * * *||||||
 z6 .c6 | [CF]4 [CE]2 [CF]6 | [EG]4 [EG]2 [EG]2 [FA]2 [EG]2 | [Fc]4 [EB]2 .[FA]6 | %10
w: ||||
 [EG]4 [EG]2 [EG]2 [FA]2 [EG]2 | [Fc]4 [FA]2 .[EG]6 | [FA]4 [FA]2 [Fc]4 [FA]2 | .B6 z6 | z6 .c6 | %15
w: |||||
 [CF]4 [CE]2 [CF]6 |] %16
w: |
V:2
 x12 | F2- [Fc]2 [Fd]2 .[Fc]6 | [FA]4 [Fc]2 F2- [FB]2 [DG]2 | x12 | x12 | F2- [Fc]2 [Fd]2 .[Fc]6 | %6
 [FA]4 [Fc]2 F2- [FB]2 [DG]2 | x12 | x12 | x12 | x12 | x12 | x12 | F2- [Fc]2 [Fd]2 .[Fc]6 | %14
 [FA]4 [Fc]2 F2- [FB]2 [DG]2 | x12 |] %16
V:3
 C4 C2 A,4 C2 | B,2[K:bass] A,2 B,2 .A,6 | C4 _E2 E2 D2 B,2 | A,4 (3G,A,B, A,6 | C4 C2 A,4 C2 | %5
 B,2[K:bass] A,2 B,2 .A,6 | C4 _E2 E2 D2 B,2 | A,4 (3G,A,B, A,6 | C4 C2 C4 C2 | C4 C2 .C6 | %10
 C4 C2 C4 C2 | C4 C2 .C6 | C4 C2[K:bass] A,4 C2 | B,2 A,2 B,2 .A,6 | C4 _E2 E2 D2 B,2 | %15
 A,4 (3G,A,B, A,6 |] %16
V:4
 F,4 F,2 F,4 F,2 | D,2 C,2 B,,2 .F,6 | F,4 A,,2 B,,4 B,,2 | C,4 C,2 F,6 | F,4 F,2 F,4 F,2 | %5
 D,2 C,2 B,,2 .F,6 | F,4 A,,2 B,,4 B,,2 | C,4 C,2 F,6 | C,4 C,2 C,4 B,2 | A,4 G,2 .F,6 | %10
 C,4 C,2 C,4 B,2 | A,4 F,2 .C,6 | F,4 F,2 F,4 F,2 | D,2 C,2 B,,2 .F,6 | F,4 A,,2 B,,4 B,,2 | %15
 C,4 C,2 F,6 |] %16

